svg/microphone.svg

<svg xmlns="http://www.w3.org/2000/svg" viewBox="0 0 24 24"><path d="M12 2a3 3 0 0 1 3 3v6a3 3 0 0 1-3 3 3 3 0 0 1-3-3V5a3 3 0 0 1 3-3m7 9c0 3.53-2.61 6.44-6 6.93V21h-2v-3.07c-3.39-.49-6-3.4-6-6.93h2a5 5 0 0 0 5 5 5 5 0 0 0 5-5z"/></svg>

<?xml version="1.0" encoding="UTF-8"?><!DOCTYPE svg PUBLIC "-//W3C//DTD SVG 1.1//EN" "http://www.w3.org/Graphics/SVG/1.1/DTD/svg11.dtd"><svg xmlns="http://www.w3.org/2000/svg" xmlns:xlink="http://www.w3.org/1999/xlink" version="1.1" id="mdi-microphone" width="24" height="24" viewBox="0 0 24 24"><path d="M12,2A3,3 0 0,1 15,5V11A3,3 0 0,1 12,14A3,3 0 0,1 9,11V5A3,3 0 0,1 12,2M19,11C19,14.53 16.39,17.44 13,17.93V21H11V17.93C7.61,17.44 5,14.53 5,11H7A5,5 0 0,0 12,16A5,5 0 0,0 17,11H19Z" /></svg>
